packages/icons/raw/imported/GenericLightningBolt.svg

<svg width="32" height="32" viewBox="0 0 32 32" fill="none" xmlns="http://www.w3.org/2000/svg">
<path d="M20.7826 3L21.2581 3.15454C21.3304 2.93207 21.2388 2.68921 21.0376 2.56991C20.8364 2.45061 20.5794 2.48677 20.4189 2.65695L20.7826 3ZM17.1304 14.2376L16.6549 14.0831C16.6054 14.2353 16.6318 14.402 16.7259 14.5315C16.82 14.661 16.9704 14.7376 17.1304 14.7376V14.2376ZM25 14.2376L25.3655 14.5789C25.5014 14.4333 25.5379 14.221 25.4586 14.0384C25.3792 13.8558 25.1991 13.7376 25 13.7376V14.2376ZM11.2174 29L10.7436 28.8404C10.6684 29.0635 10.759 29.3087 10.9612 29.4294C11.1633 29.55 11.4222 29.5133 11.5829 29.3412L11.2174 29ZM15.1695 18.8343C15.2576 18.5726 15.117 18.289 14.8553 18.2008C14.5936 18.1126 14.31 18.2533 14.2218 18.515L15.1695 18.8343ZM6 18.6746L5.63625 18.3316C5.49932 18.4768 5.46185 18.6895 5.54091 18.8727C5.61997 19.056 5.80043 19.1746 6 19.1746V18.6746ZM11.9565 19.1746C12.2327 19.1746 12.4565 18.9508 12.4565 18.6746C12.4565 18.3985 12.2327 18.1746 11.9565 18.1746V19.1746ZM20.3071 2.84546L16.6549 14.0831L17.606 14.3922L21.2581 3.15454L20.3071 2.84546ZM17.1304 14.7376H25V13.7376H17.1304V14.7376ZM24.6345 13.8964L10.8519 28.6588L11.5829 29.3412L25.3655 14.5789L24.6345 13.8964ZM11.6912 29.1596L15.1695 18.8343L14.2218 18.515L10.7436 28.8404L11.6912 29.1596ZM20.4189 2.65695L5.63625 18.3316L6.36375 19.0177L21.1464 3.34305L20.4189 2.65695ZM6 19.1746H11.9565V18.1746H6V19.1746Z" fill="black"/>
</svg>

<svg width="32" height="32" fill="none" xmlns="http://www.w3.org/2000/svg"><path d="m20.783 3 .475.155a.5.5 0 0 0-.84-.498l.365.343ZM17.13 14.238l-.475-.155a.5.5 0 0 0 .475.655v-.5Zm7.87 0 .366.34a.5.5 0 0 0-.366-.84v.5ZM11.217 29l-.473-.16a.5.5 0 0 0 .839.501L11.217 29Zm3.952-10.166a.5.5 0 0 0-.947-.319l.947.32ZM6 18.674l-.364-.342a.5.5 0 0 0 .364.843v-.5Zm5.957.5a.5.5 0 1 0 0-1v1Zm8.35-16.329-3.652 11.238.951.31 3.652-11.238-.95-.31ZM17.13 14.738H25v-1h-7.87v1Zm7.505-.842L10.851 28.66l.73.682L25.367 14.58l-.732-.683ZM11.69 29.16l3.478-10.326-.947-.319-3.478 10.325.947.32ZM20.42 2.657 5.636 18.332l.728.686L21.146 3.343l-.727-.686ZM6 19.175h5.957v-1H6v1Z" fill="#000"/></svg>
